icons-dark/apps/48/cantata.svg

<?xml version="1.0" encoding="UTF-8" standalone="no"?>

<!-- Created with Inkscape (http://www.inkscape.org/) -->
<svg width="48" version="1.1" xmlns="http://www.w3.org/2000/svg" height="48" xmlns:xlink="http://www.w3.org/1999/xlink" xmlns:inkscape="http://www.inkscape.org/namespaces/inkscape">
 <defs id="defs2987">
  <linearGradient inkscape:collect="always" id="linearGradient4275">
   <stop style="stop-color:#2ecc71" id="stop4277"/>
   <stop offset="1" style="stop-color:#55b019" id="stop4279"/>
  </linearGradient>
  <linearGradient inkscape:collect="always" id="linearGradient4267">
   <stop style="stop-color:#2980b9" id="stop4269"/>
   <stop offset="1" style="stop-color:#1a7459" id="stop4271"/>
  </linearGradient>
  <linearGradient id="linearGradient4501">
   <stop style="stop-color:#f67400" id="stop4503"/>
   <stop offset="1" style="stop-color:#ed1515" id="stop4505"/>
  </linearGradient>
  <linearGradient id="linearGradient4491">
   <stop style="stop-color:#212329" id="stop4493"/>
   <stop offset="1" style="stop-color:#31363b" id="stop4495"/>
  </linearGradient>
  <linearGradient inkscape:collect="always" id="linearGradient3097" xlink:href="#linearGradient4227-4" y1="539.0874" y2="561.69012" x1="390.87805" x2="414.09818" gradientUnits="userSpaceOnUse" gradientTransform="matrix(1.1713132 0 0 1.1713132 -442.46606 -613.17725)"/>
  <linearGradient inkscape:collect="always" id="linearGradient4227-4">
   <stop style="stop-color:#292c2f" id="stop4229-6"/>
   <stop offset="1" style="stop-opacity:0" id="stop4231-9"/>
  </linearGradient>
  <linearGradient inkscape:collect="always" xlink:href="#linearGradient4227-4" id="linearGradient4265" y1="21" x1="27" y2="37" x2="43" gradientUnits="userSpaceOnUse" gradientTransform="matrix(1 0 0 1 -3 -1)"/>
  <linearGradient inkscape:collect="always" xlink:href="#linearGradient4267" id="linearGradient4273" y1="10" x1="1" y2="44" x2="35" gradientUnits="userSpaceOnUse" gradientTransform="matrix(1 0 0 1 0.365698 -0.856025)"/>
  <linearGradient inkscape:collect="always" xlink:href="#linearGradient4275" id="linearGradient4281" y1="5" x1="2" y2="43" x2="40" gradientUnits="userSpaceOnUse"/>
 </defs>
 <metadata id="metadata2990"/>
 <g inkscape:label="Layer 1" inkscape:groupmode="layer" id="layer1">
  <circle cx="24" cy="24" style="fill:#bdc3c7;stroke-linecap:round;stroke-linejoin:round;stroke-width:2" id="path4197" r="20"/>
  <path style="fill:#bdc3c7;stroke-linecap:round;stroke-linejoin:round;stroke-width:2" id="path4197-30" d="M 43.978516 23.417969 A 20 20 0 0 1 24 43 A 20 20 0 0 1 4.0214844 23.582031 A 20 20 0 0 0 4 24 A 20 20 0 0 0 24 44 A 20 20 0 0 0 44 24 A 20 20 0 0 0 43.978516 23.417969 z "/>
  <path style="fill:url(#linearGradient4281);stroke-linecap:round;stroke-linejoin:round;stroke-width:2" id="path4197-2" d="M 24 4 A 20 20 0 0 0 4 24 A 20 20 0 0 0 24 44 A 20 20 0 0 0 38.132812 38.132812 L 24 24 L 38.132812 9.8671875 A 20 20 0 0 0 24 4 z "/>
  <path inkscape:connector-curvature="0" style="fill:#258e52;stroke-linecap:round;stroke-linejoin:round;stroke-width:2" id="path4197-2-7" d="M 4.0214844,23.417969 C 4.0114982,23.611865 4.004336,23.805896 4,24 c 0,11.045695 8.954305,20 20,20 5.302437,-0.0049 10.385896,-2.115325 14.132812,-5.867188 L 37.611328,37.611328 C 33.918265,41.063165 29.055073,42.988484 24,43 13.123849,42.990692 4.2487752,34.291749 4.0214844,23.417969 Z"/>
  <circle cx="24" cy="24" style="fill:#fcfcfc;stroke-linecap:round;stroke-linejoin:round;stroke-width:2" id="path4197-3" r="16"/>
  <path inkscape:connector-curvature="0" style="fill:url(#linearGradient4265);opacity:0.2;fill-rule:evenodd" id="path4233" d="m 25,5 -1,5 0,24 -9.601562,7.855469 C 16.518945,42.605477 18.750776,43.992416 21,44 32.045695,44 44,35.045695 44,24 43.992033,23.285143 25,5 25,5 Z"/>
  <path inkscape:connector-curvature="0" style="fill:url(#linearGradient4273);fill-rule:evenodd" id="path4206" d="m 22,4 3,1 c 0,0 1.242188,3.8222656 2.242188,4.822266 C 28.823326,11.403404 35,15 35,23 c 0,6 -4,10 -9,13 5,-5 7,-7 7,-13 0,-8 -8,-9 -8,-9 l 0,21.775391 C 25,38 22.903151,41.693242 19.480932,43.114678 15.143125,44.91188 10.598171,43.886052 9.3305418,40.823663 8.0633698,37.762425 10.550945,33.825149 14.887182,32.028741 17.478199,30.955175 19.910662,30.708891 22,31.611328 Z"/>
 </g>
</svg>

<svg width="48" xmlns="http://www.w3.org/2000/svg" height="48">
 <defs>
  <linearGradient id="a" y1="21" x1="27" y2="37" x2="43" gradientUnits="userSpaceOnUse" gradientTransform="translate(-3-1)">
   <stop stop-color="#292c2f"/>
   <stop offset="1" stop-opacity="0"/>
  </linearGradient>
  <linearGradient id="b" y1="10" x1="1" y2="44" x2="35" gradientUnits="userSpaceOnUse" gradientTransform="translate(.366-.856)">
   <stop stop-color="#2980b9"/>
   <stop offset="1" stop-color="#1a7459"/>
  </linearGradient>
  <linearGradient id="c" y1="5" x1="2" y2="43" x2="40" gradientUnits="userSpaceOnUse">
   <stop stop-color="#2ecc71"/>
   <stop offset="1" stop-color="#55b019"/>
  </linearGradient>
 </defs>
 <g stroke-linejoin="round" stroke-width="2">
  <g fill="#bdc3c7">
   <circle cx="24" cy="24" r="20" stroke-linecap="round"/>
   <path d="M43.978516 23.417969A20 20 0 0 1 24 43 20 20 0 0 1 4.02148 23.582031 20 20 0 0 0 4 24 20 20 0 0 0 24 44 20 20 0 0 0 44 24 20 20 0 0 0 43.978516 23.417969"/>
  </g>
  <path fill="url(#c)" d="M24 4A20 20 0 0 0 4 24 20 20 0 0 0 24 44 20 20 0 0 0 38.13281 38.13281L24 24 38.13 9.867A20 20 0 0 0 24 4"/>
  <path fill="#258e52" d="m4.02 23.418c-.01.194-.017.388-.021.582 0 11.05 8.954 20 20 20 5.302-.005 10.386-2.115 14.13-5.867l-.521-.521c-3.693 3.452-8.556 5.377-13.611 5.389-10.876-.009-19.751-8.708-19.979-19.582"/>
  <circle fill="#fcfcfc" cx="24" cy="24" r="16" stroke-linecap="round"/>
 </g>
 <g fill-rule="evenodd">
  <path opacity=".2" fill="url(#a)" d="m25 5l-1 5v24l-9.602 7.855c2.121.75 4.352 2.137 6.602 2.145 11.05 0 23-8.954 23-20-.008-.715-19-19-19-19"/>
  <path fill="url(#b)" d="m22 4l3 1c0 0 1.242 3.822 2.242 4.822 1.581 1.581 7.758 5.178 7.758 13.178 0 6-4 10-9 13 5-5 7-7 7-13 0-8-8-9-8-9v21.775c0 2.225-2.097 5.918-5.519 7.339-4.338 1.797-8.883.771-10.15-2.291-1.267-3.061 1.22-6.999 5.557-8.795 2.591-1.074 5.02-1.32 7.113-.417z"/>
 </g>
</svg>
